icons/mix.svg

<svg viewBox="0 0 128 128" fill="none" xmlns="http://www.w3.org/2000/svg"><path fill-rule="evenodd" clip-rule="evenodd" d="M27.0371 10H100.963C107.066 10.0232 112.912 12.4577 117.227 16.773C121.542 21.0883 123.977 26.9344 124 33.0371V95.6934C124.005 101.793 121.589 107.645 117.281 111.963L117.066 112.158C112.779 116.363 107.016 118.722 101.012 118.73H27.0371C24.0133 118.728 21.0197 118.129 18.2279 116.968C15.436 115.807 12.9008 114.106 10.7676 111.963L10.5723 111.748C6.36174 107.465 4.0016 101.7 4 95.6934L4 33.0371C4.01803 26.9328 6.45094 21.0837 10.7673 16.7673C15.0837 12.4509 20.9328 10.018 27.0371 10V10ZM56.7344 56.6113L81.3926 73.8281C81.9058 74.155 82.3306 74.6034 82.6293 75.1336C82.9279 75.6638 83.0912 76.2594 83.1047 76.8678C83.1182 77.4761 82.9815 78.0785 82.7068 78.6214C82.432 79.1643 82.0275 79.6311 81.5293 79.9805L56.9492 96.9629C56.2914 97.5115 55.462 97.8121 54.6055 97.8125C54.117 97.8164 53.6325 97.7235 53.1801 97.5392C52.7277 97.355 52.3162 97.0829 51.9694 96.7389C51.6226 96.3948 51.3473 95.9855 51.1595 95.5345C50.9717 95.0835 50.875 94.5999 50.875 94.1113V59.6289C50.8658 58.9443 51.0477 58.2707 51.4003 57.6838C51.7528 57.0969 52.262 56.62 52.8707 56.3065C53.4793 55.993 54.1634 55.8555 54.8459 55.9093C55.5284 55.9632 56.1824 56.2063 56.7344 56.6113V56.6113ZM11.1777 35.8496H24.8496L33.6973 17.1777H27.0371C22.8349 17.1906 18.8085 18.8656 15.8371 21.8371C12.8656 24.8085 11.1906 28.8349 11.1777 33.0371V35.8496ZM40.1816 17.1777L31.3437 35.8496H56.1094L64.9668 17.207L40.1816 17.1777ZM71.4316 17.1777L62.5156 35.8496H86.6367L95.5039 17.1777H71.4316ZM102.018 17.1777L93.1211 35.8496H116.822V33.0371C116.805 29.0116 115.264 25.1419 112.511 22.2055C109.757 19.269 105.995 17.4833 101.979 17.207L102.018 17.1777ZM116.861 43.2324H11.1777V95.6934C11.194 99.8233 12.8235 103.783 15.7187 106.729L15.8848 106.885C18.8354 109.86 22.8467 111.543 27.0371 111.563H100.963C105.086 111.559 109.045 109.948 111.998 107.07L112.154 106.895C113.631 105.429 114.804 103.685 115.605 101.765C116.406 99.8441 116.82 97.7841 116.822 95.7031V43.2617L116.861 43.2324Z" fill="#F40407"/></svg>

<svg viewBox="0 0 128 128" fill="none" xmlns="http://www.w3.org/2000/svg">
    <path fill-rule="evenodd" clip-rule="evenodd"
        d="M27.037 10h73.926A23.124 23.124 0 01124 33.037v62.656a23.008 23.008 0 01-6.719 16.27l-.215.195a22.97 22.97 0 01-16.054 6.572H27.037a22.982 22.982 0 01-16.27-6.767l-.195-.215A22.909 22.909 0 014 95.693V33.037A23.106 23.106 0 0127.037 10zm29.697 46.611l24.659 17.217a3.703 3.703 0 01.136 6.153L56.95 96.963a3.662 3.662 0 01-2.343.85 3.7 3.7 0 01-3.731-3.702V59.63a3.68 3.68 0 015.86-3.018zM11.178 35.85H24.85l8.847-18.672h-6.66a15.908 15.908 0 00-15.86 15.86v2.812zm29.004-18.672L31.344 35.85h24.765l8.858-18.643-24.785-.03zm31.25 0L62.516 35.85h24.12l8.868-18.672H71.432zm30.586 0L93.121 35.85h23.701v-2.813a15.936 15.936 0 00-14.843-15.83l.039-.03zm14.843 26.054H11.178v52.461a15.833 15.833 0 004.54 11.036l.167.156a15.814 15.814 0 0011.152 4.678h73.926a15.831 15.831 0 0011.035-4.493l.156-.175a15.8 15.8 0 004.668-11.192V43.262l.039-.03z"
        fill="#F40407" />
</svg>
